X:1
T: Christchurch Bells
N:
C:
S:
A:
O:
R:
M:4/4
K:C
I:speed 212
%W: A
% voice 1 (1 lines, 16 notes)
K:C
M:4/4
L:1/16
c6 c2 c4 c4 |c4 c4 c4 e4 |d4 c4 B4 A4 |G6 G2 G4 G4 |
%W:
% voice 1 (1 lines, 17 notes)
E4 G4 C4 G4 |F4 F4 G4 g2 f2 |e4 g4 d2 e2 f4 |e6 d2 c8 ||
%W: B
% voice 1 (1 lines, 17 notes)
e6 e2 e4 e4 |e4 e4 e4 g4 |f4 e2 f2 d4 c4 |d4 G4 G4 d4 |
%W:
% voice 1 (1 lines, 16 notes)
e4 d4 e4 d4 |e4 d4 d4 c2 B2 |c4 A4 d4 B4 |c6 d2 e8 ||
%W: C
% voice 1 (1 lines, 19 notes)
g2 g2 g2 g2 g4 g2 g2 |g4 g2 g2 g4 G4 |A6 A2 B4 c4 |B12 A2 B2 |
%W:
% voice 1 (1 lines, 15 notes)
c4 B4 c4 B4 |c4 d4 B4 A2 G2 |A4 F4 G6 G2 |C12 z4 ||
